X: 421
T: Durham March
%R: march
Z: 2017 John Chambers <jc:trillian.mit.edu>
B: John Treat - "Gamut for the Fifes", 1779, p.44 #1
F: https://archive.org/details/GamutFortheFifes
N: Bar 3 has dots on the first of each note pair, but no flags; transcribed as the usual dotting.
M: C|
L: 1/8
K: G
% - - - - - - - - - - - - - - - - - - - - - - - - -
B>c |\
d2 g>d d2 g>d | Te2 d>d d2 g>f | f>e e>d d>c c>B | A2 D>D D2 B>c |\
d2 g>d d2 g>d | Te2 d>d d2 c>B | A>e d>c TB2 TA2 | G2 G>G G2 :|
|: (3DGB |\
TA2 G>G G2 (3GBd | c2 B>B B2 (3gfe | d2  (3edc B2 (3dcB | A>G A>B A2 (3DGB |\
TA2 G>G G2 (3GBd | c2 B>B B2 (3gfe | d>d (3edc TB2 TA2  | G2  G>G G2 :|
% - - - - - - - - - - - - - - - - - - - - - - - - -
